src/assets/outline/More2.svg

<svg width="24" height="24" viewBox="0 0 24 24"  xmlns="http://www.w3.org/2000/svg">
<path d="M11.9998 10.07C10.3998 10.07 9.08984 8.76 9.08984 7.16C9.08984 5.56 10.3998 4.25 11.9998 4.25C13.5998 4.25 14.9098 5.56 14.9098 7.16C14.9098 8.76 13.5998 10.07 11.9998 10.07ZM11.9998 5.75C11.2198 5.75 10.5898 6.38 10.5898 7.16C10.5898 7.94 11.2198 8.57 11.9998 8.57C12.7798 8.57 13.4098 7.94 13.4098 7.16C13.4098 6.38 12.7798 5.75 11.9998 5.75Z" />
<path d="M6.78988 19.7497C5.18988 19.7497 3.87988 18.4397 3.87988 16.8397C3.87988 15.2397 5.18988 13.9297 6.78988 13.9297C8.38988 13.9297 9.69988 15.2397 9.69988 16.8397C9.69988 18.4397 8.38988 19.7497 6.78988 19.7497ZM6.78988 15.4297C6.00988 15.4297 5.37988 16.0597 5.37988 16.8397C5.37988 17.6197 6.00988 18.2497 6.78988 18.2497C7.56988 18.2497 8.19988 17.6197 8.19988 16.8397C8.19988 16.0597 7.55988 15.4297 6.78988 15.4297Z" />
<path d="M17.2098 19.7497C15.6098 19.7497 14.2998 18.4397 14.2998 16.8397C14.2998 15.2397 15.6098 13.9297 17.2098 13.9297C18.8098 13.9297 20.1198 15.2397 20.1198 16.8397C20.1198 18.4397 18.8198 19.7497 17.2098 19.7497ZM17.2098 15.4297C16.4298 15.4297 15.7998 16.0597 15.7998 16.8397C15.7998 17.6197 16.4298 18.2497 17.2098 18.2497C17.9898 18.2497 18.6198 17.6197 18.6198 16.8397C18.6198 16.0597 17.9898 15.4297 17.2098 15.4297Z" />
</svg>

<?xml version="1.0" encoding="UTF-8"?>
<svg width="24" height="24" viewBox="0 0 24 24" xmlns="http://www.w3.org/2000/svg">
 <path d="m12 10.07c-1.6 0-2.91-1.31-2.91-2.91s1.31-2.91 2.91-2.91 2.91 1.31 2.91 2.91-1.31 2.91-2.91 2.91zm0-4.32c-0.78 0-1.41 0.63-1.41 1.41s0.63 1.41 1.41 1.41 1.41-0.63 1.41-1.41-0.63-1.41-1.41-1.41z"/>
 <path d="m6.7899 19.75c-1.6 0-2.91-1.31-2.91-2.91s1.31-2.91 2.91-2.91 2.91 1.31 2.91 2.91-1.31 2.91-2.91 2.91zm0-4.32c-0.78 0-1.41 0.63-1.41 1.41s0.63 1.41 1.41 1.41 1.41-0.63 1.41-1.41-0.64-1.41-1.41-1.41z"/>
 <path d="m17.21 19.75c-1.6 0-2.91-1.31-2.91-2.91s1.31-2.91 2.91-2.91 2.91 1.31 2.91 2.91-1.3 2.91-2.91 2.91zm0-4.32c-0.78 0-1.41 0.63-1.41 1.41s0.63 1.41 1.41 1.41 1.41-0.63 1.41-1.41-0.63-1.41-1.41-1.41z"/>
</svg>
